X:1
T: Miss Hope
C:
R:Strathspey
Q: 128
K:D
M:4/4
L:1/16
|:D3F A3B A3G F3D|d4 f3d eE3 E4|D3F A3B A3G F3D|G3B A3F DDD2 D4|
D3F A3B A3G F3D|d4 f3d eE3 E4|D3F A3B A3G F3D|G3B A3F DDD2 D4|
d3c d3e d3f e3d|c3d e3f gf3 e3c|d3c d3e f3e d3A|G3B A3F DDD2 D4|
d3c d3e d3f e3d|c3d e3f gf3 e3c|d3c d3e f3e d3A|G3B A3F DDD2 D4:|
